assets/img/charisol_logo.svg

<svg width="94" height="19" viewBox="0 0 94 19" version="1.1" xmlns="http://www.w3.org/2000/svg" xmlns:xlink="http://www.w3.org/1999/xlink">
<title>charisol_logo</title>
<desc>Created using Figma</desc>
<g id="Canvas" transform="translate(-12825 256)">
<g id="charisol_logo">
<use xlink:href="#path0_fill" transform="translate(12825 -262)" fill="#4D4D4D"/>
</g>
</g>
<defs>
<path id="path0_fill" d="M 7.176 21C 5.448 21 4.296 19.752 4.296 17.976C 4.296 16.224 5.448 14.952 7.176 14.952C 8.4 14.952 9.384 15.624 9.72 17.088L 13.32 16.224C 12.648 13.392 10.104 11.592 7.176 11.592C 3.576 11.592 0.6 14.184 0.6 17.976C 0.6 21.792 3.576 24.36 7.176 24.36C 10.176 24.36 12.72 22.512 13.32 19.656L 9.792 18.888C 9.384 20.352 8.4 21 7.176 21ZM 22.8739 11.592C 21.3379 11.592 20.0899 12.144 19.1539 13.104L 19.1539 6.72L 15.3139 6.72L 15.3139 24L 19.1539 24L 19.1539 18.408C 19.1539 16.08 20.1379 15.048 21.6259 15.048C 22.8739 15.048 23.7139 16.008 23.7139 17.424L 23.7139 24L 27.5299 24L 27.5299 16.608C 27.5299 13.584 25.6579 11.592 22.8739 11.592ZM 42.8453 11.952L 39.0052 11.952L 39.0052 12.912C 38.0692 12.072 36.8213 11.592 35.2613 11.592C 32.0692 11.592 29.3813 14.184 29.3813 17.976C 29.3813 21.792 32.0692 24.36 35.2613 24.36C 36.8213 24.36 38.0692 23.88 39.0052 23.04L 39.0052 24L 42.8453 24L 42.8453 11.952ZM 36.0533 21.096C 34.3732 21.096 33.1492 19.848 33.1492 17.976C 33.1492 16.128 34.3732 14.856 36.0533 14.856C 37.6133 14.856 39.0052 16.128 39.0052 17.976C 39.0052 19.848 37.6133 21.096 36.0533 21.096ZM 53.6106 11.784C 51.6426 11.784 50.3226 12.816 49.4586 14.256L 49.4586 11.952L 45.6186 11.952L 45.6186 24L 49.4586 24L 49.4586 20.232C 49.4586 17.112 50.9226 15.72 53.6106 15.72L 54.3066 15.72L 54.4746 11.88C 54.1866 11.808 53.9466 11.784 53.6106 11.784ZM 58.2071 6.216C 56.9111 6.216 55.9991 7.224 55.9991 8.4C 55.9991 9.624 56.9111 10.536 58.2071 10.536C 59.5031 10.536 60.4391 9.624 60.4391 8.4C 60.4391 7.224 59.5031 6.216 58.2071 6.216ZM 60.1271 24L 60.1271 11.952L 56.2871 11.952L 56.2871 24L 60.1271 24ZM 62.2869 20.856C 62.6949 23.328 65.1189 24.36 67.9509 24.36C 71.1189 24.36 73.4229 22.968 73.4229 20.304C 73.4229 18.528 72.3669 17.16 70.0869 16.68L 67.2549 16.104C 66.4869 15.936 66.3429 15.6 66.3429 15.264C 66.3429 14.832 66.6789 14.328 67.7109 14.328C 68.8869 14.328 69.6069 15 69.7269 15.744L 73.2309 15.048C 72.7509 12.96 70.7589 11.592 67.7589 11.592C 64.7109 11.592 62.5749 13.2 62.5749 15.672C 62.5749 17.568 63.8469 18.768 66.0789 19.176L 68.5269 19.656C 69.4149 19.824 69.7269 20.136 69.7269 20.544C 69.7269 21.072 69.1749 21.504 68.1669 21.504C 67.1349 21.504 66.1989 21.12 66.0309 20.088L 62.2869 20.856ZM 81.2642 11.64C 77.6162 11.64 74.5922 14.184 74.5922 17.976C 74.5922 21.792 77.6162 24.336 81.2642 24.336C 84.8402 24.336 87.8642 21.792 87.8642 17.976C 87.8642 14.184 84.8402 11.64 81.2642 11.64ZM 81.2642 21.096C 79.7042 21.096 78.2882 19.872 78.2882 17.976C 78.2882 16.104 79.7042 14.856 81.2642 14.856C 82.7522 14.856 84.1682 16.104 84.1682 17.976C 84.1682 19.872 82.7522 21.096 81.2642 21.096ZM 93.6851 24L 93.6851 6.72L 89.8451 6.72L 89.8451 24L 93.6851 24Z"/>
</defs>
</svg>

<svg width="94" height="19" xmlns="http://www.w3.org/2000/svg" xmlns:xlink="http://www.w3.org/1999/xlink"><use xlink:href="#path0_fill" transform="translate(0 -6)" fill="#4D4D4D"/><defs><path id="path0_fill" d="M7.176 21c-1.728 0-2.88-1.248-2.88-3.024 0-1.752 1.152-3.024 2.88-3.024 1.224 0 2.208.672 2.544 2.136l3.6-.864c-.672-2.832-3.216-4.632-6.144-4.632-3.6 0-6.576 2.592-6.576 6.384 0 3.816 2.976 6.384 6.576 6.384 3 0 5.544-1.848 6.144-4.704l-3.528-.768C9.384 20.352 8.4 21 7.176 21zm15.698-9.408c-1.536 0-2.784.552-3.72 1.512V6.72h-3.84V24h3.84v-5.592c0-2.328.984-3.36 2.472-3.36 1.248 0 2.088.96 2.088 2.376V24h3.816v-7.392c0-3.024-1.872-5.016-4.656-5.016zm19.971.36h-3.84v.96c-.936-.84-2.184-1.32-3.744-1.32-3.192 0-5.88 2.592-5.88 6.384 0 3.816 2.688 6.384 5.88 6.384 1.56 0 2.808-.48 3.744-1.32V24h3.84V11.952zm-6.792 9.144c-1.68 0-2.904-1.248-2.904-3.12 0-1.848 1.224-3.12 2.904-3.12 1.56 0 2.952 1.272 2.952 3.12 0 1.872-1.392 3.12-2.952 3.12zm17.558-9.312c-1.968 0-3.288 1.032-4.152 2.472v-2.304h-3.84V24h3.84v-3.768c0-3.12 1.464-4.512 4.152-4.512h.696l.168-3.84a3.288 3.288 0 0 0-.864-.096zm4.596-5.568A2.167 2.167 0 0 0 56 8.4c0 1.224.912 2.136 2.208 2.136 1.296 0 2.232-.912 2.232-2.136 0-1.176-.936-2.184-2.232-2.184zM60.127 24V11.952h-3.84V24h3.84zm2.16-3.144c.408 2.472 2.832 3.504 5.664 3.504 3.168 0 5.472-1.392 5.472-4.056 0-1.776-1.056-3.144-3.336-3.624l-2.832-.576c-.768-.168-.912-.504-.912-.84 0-.432.336-.936 1.368-.936 1.176 0 1.896.672 2.016 1.416l3.504-.696c-.48-2.088-2.472-3.456-5.472-3.456-3.048 0-5.184 1.608-5.184 4.08 0 1.896 1.272 3.096 3.504 3.504l2.448.48c.888.168 1.2.48 1.2.888 0 .528-.552.96-1.56.96-1.032 0-1.968-.384-2.136-1.416l-3.744.768zm18.977-9.216c-3.648 0-6.672 2.544-6.672 6.336 0 3.816 3.024 6.36 6.672 6.36 3.576 0 6.6-2.544 6.6-6.36 0-3.792-3.024-6.336-6.6-6.336zm0 9.456c-1.56 0-2.976-1.224-2.976-3.12 0-1.872 1.416-3.12 2.976-3.12 1.488 0 2.904 1.248 2.904 3.12 0 1.896-1.416 3.12-2.904 3.12zM93.685 24V6.72h-3.84V24h3.84z"/></defs></svg>
